X: 573
T: The Fermoy lasses
C: anon.
O: Ireland
B: Francis O'Neill: "The Dance Music of Ireland" (1907) no. 573
R: Reel
Z: Transcribed by Frank Nordberg - http://www.musicaviva.com
F: http://www.musicaviva.com/abc/tunes/ireland/oneill-1001/oneill-1001-057
3.abc
m: Mn = (3n/o/n/
M: C|
L: 1/8
K: Em
BA "^segno" |G(E {F}(3EDE) B>(E {F}(3EDE)|G>(E {F}(3EDE) BcBA|[1G>(E {F}(
3EDE) B>(E {F}(3EDE)|AFDF AcBA:|[2G2MGF GBdB|AFDF A2||
(BA)|(3(GAG) BG dGBG|(3(GAG) Bd efg2|(3(GAG) BG dGBG|AFDF AcBA|(3(GAG) BG
 dGBG|(3(GAG) Bd efg2|af ({a}g)e dedB|AFDF AcBA "^segno" |]
W:
W:
W: From Musica Viva - http://www.musicaviva.com
W: the Internet center for free sheet music downloads.


